img/advantage/ruble2.svg

<svg xmlns="http://www.w3.org/2000/svg" viewBox="0 0 50 50"><linearGradient id="a" gradientUnits="userSpaceOnUse" x1="23.98" y1="44.959" x2="25.93" y2="44.959" gradientTransform="matrix(1 0 0 -1 0 52.08)"><stop offset="0" stop-color="#188ac7"/><stop offset="1" stop-color="#85b8dc"/></linearGradient><path d="M25 8c.5 0 1-.4 1-.9-.1-.5-.7-.9-1.2-.8-.4.1-.7.4-.8.7.1.6.5 1 1 1z" fill="url(#a)"/><linearGradient id="b" gradientUnits="userSpaceOnUse" x1="16.18" y1="26.131" x2="33.73" y2="26.131" gradientTransform="matrix(1 0 0 -1 0 52.08)"><stop offset="0" stop-color="#188ac7"/><stop offset="1" stop-color="#85b8dc"/></linearGradient><path d="M27.9 26c3.2 0 5.9-2.6 5.9-5.8s-2.6-5.9-5.8-5.9h-8.8c-.6 0-1 .4-1 1v8.8h-1c-.5-.1-1.1.2-1.2.8-.1.5.2 1.1.8 1.2h1.4V30h-1c-.6 0-1 .4-1 1s.4 1 1 1h1v4.9c.1.5.7.9 1.2.8.4-.1.7-.4.8-.8V32H27c.6 0 1-.4 1-1s-.4-1-1-1h-6.8v-4h7.7zm-7.8-9.7h7.8c2.2 0 3.9 1.7 3.9 3.9s-1.7 3.9-3.9 3.9h-7.8v-7.8z" fill="url(#b)"/><linearGradient id="c" gradientUnits="userSpaceOnUse" x1="0" y1="27.08" x2="49.92" y2="27.08" gradientTransform="matrix(1 0 0 -1 0 52.08)"><stop offset="0" stop-color="#188ac7"/><stop offset="1" stop-color="#85b8dc"/></linearGradient><path d="M25 50c13.7-.2 24.8-11.3 25-25C50 11.6 38.5 0 25 0 11.3.2.2 11.3 0 25.1.3 38.8 11.3 49.8 25 50zm0-47.9c12.2 0 23 10.7 23 23s-10.8 23-23 23-23-10.8-23-23 10.7-23 23-23z" fill="url(#c)"/><linearGradient id="d" gradientUnits="userSpaceOnUse" x1="5.85" y1="26.811" x2="44.07" y2="26.811" gradientTransform="matrix(1 0 0 -1 0 52.08)"><stop offset="0" stop-color="#188ac7"/><stop offset="1" stop-color="#85b8dc"/></linearGradient><path d="M25 44.2c10.2 0 19.1-8.9 19.1-19.1 0-8.7-6.5-16.6-15-18.6-.5-.1-1 .2-1.2.7-.1.5.2 1 .7 1.2 7.8 1.9 13.3 8.8 13.5 16.8-.3 9.3-7.8 16.9-17.1 17.1-9.4-.3-16.9-7.8-17.2-17.2.2-8 5.7-14.9 13.5-16.8.5-.2.7-.8.5-1.3-.2-.3-.5-.6-.9-.6-8.5 2-15 9.9-15 18.6-.1 10.2 8.8 19.2 19.1 19.2z" fill="url(#d)"/></svg>

<?xml version="1.0" encoding="utf-8"?>
<!-- Generator: Adobe Illustrator 22.1.0, SVG Export Plug-In . SVG Version: 6.00 Build 0)  -->
<svg version="1.1" id="Capa_1" xmlns="http://www.w3.org/2000/svg" xmlns:xlink="http://www.w3.org/1999/xlink" x="0px" y="0px"
	 viewBox="0 0 50 50" style="enable-background:new 0 0 50 50;" xml:space="preserve">
<style type="text/css">
	.st0{fill:url(#SVGID_1_);}
	.st1{fill:url(#SVGID_2_);}
	.st2{fill:url(#SVGID_3_);}
	.st3{fill:url(#SVGID_4_);}
</style>
<title>ruble2</title>
<linearGradient id="SVGID_1_" gradientUnits="userSpaceOnUse" x1="23.98" y1="44.959" x2="25.93" y2="44.959" gradientTransform="matrix(1 0 0 -1 0 52.08)">
	<stop  offset="0" style="stop-color:#188AC7"/>
	<stop  offset="1" style="stop-color:#85B8DC"/>
</linearGradient>
<path class="st0" d="M25,8c0.5,0,1-0.4,1-0.9l0,0c-0.1-0.5-0.7-0.9-1.2-0.8C24.4,6.4,24.1,6.7,24,7v0C24.1,7.6,24.5,8,25,8z"/>
<linearGradient id="SVGID_2_" gradientUnits="userSpaceOnUse" x1="16.18" y1="26.131" x2="33.73" y2="26.131" gradientTransform="matrix(1 0 0 -1 0 52.08)">
	<stop  offset="0" style="stop-color:#188AC7"/>
	<stop  offset="1" style="stop-color:#85B8DC"/>
</linearGradient>
<path class="st1" d="M27.9,26c3.2,0,5.9-2.6,5.9-5.8s-2.6-5.9-5.8-5.9c0,0,0,0,0,0h-8.8c-0.6,0-1,0.4-1,1v8.8h-1
	c-0.5-0.1-1.1,0.2-1.2,0.8c-0.1,0.5,0.2,1.1,0.8,1.2c0.1,0,0.3,0,0.4,0h1v3.9h-1c-0.6,0-1,0.4-1,1s0.4,1,1,1h1v4.9
	c0.1,0.5,0.7,0.9,1.2,0.8c0.4-0.1,0.7-0.4,0.8-0.8v-4.9h6.8c0.6,0,1-0.4,1-1s-0.4-1-1-1h-6.8V26L27.9,26z M20.1,16.3h7.8
	c2.2,0,3.9,1.7,3.9,3.9c0,2.2-1.7,3.9-3.9,3.9c0,0,0,0,0,0h-7.8V16.3z"/>
<linearGradient id="SVGID_3_" gradientUnits="userSpaceOnUse" x1="0" y1="27.08" x2="49.92" y2="27.08" gradientTransform="matrix(1 0 0 -1 0 52.08)">
	<stop  offset="0" style="stop-color:#188AC7"/>
	<stop  offset="1" style="stop-color:#85B8DC"/>
</linearGradient>
<path class="st2" d="M25,50c13.7-0.2,24.8-11.3,25-25C50,11.6,38.5,0,25,0C11.3,0.2,0.2,11.3,0,25.1C0.3,38.8,11.3,49.8,25,50z
	 M25,2.1c12.2,0,23,10.7,23,23s-10.8,23-23,23S2,37.3,2,25.1S12.7,2.1,25,2.1z"/>
<linearGradient id="SVGID_4_" gradientUnits="userSpaceOnUse" x1="5.85" y1="26.8114" x2="44.07" y2="26.8114" gradientTransform="matrix(1 0 0 -1 0 52.08)">
	<stop  offset="0" style="stop-color:#188AC7"/>
	<stop  offset="1" style="stop-color:#85B8DC"/>
</linearGradient>
<path class="st3" d="M25,44.2c10.2,0,19.1-8.9,19.1-19.1c0-8.7-6.5-16.6-15-18.6c-0.5-0.1-1,0.2-1.2,0.7c-0.1,0.5,0.2,1,0.7,1.2
	c7.8,1.9,13.3,8.8,13.5,16.8c-0.3,9.3-7.8,16.9-17.1,17.1C15.6,42,8.1,34.5,7.8,25.1c0.2-8,5.7-14.9,13.5-16.8
	C21.8,8.1,22,7.5,21.8,7c-0.2-0.3-0.5-0.6-0.9-0.6c-8.5,2-15,9.9-15,18.6C5.8,35.2,14.7,44.2,25,44.2z"/>
</svg>
